X:14401
T:Lord Lovat's Lament
H: 
C:Seconds - PM J.G.Slattery (Scots Guards)
B: 
O:Kevin Fraser
Z:Kevin Fraser
Q:1/4=90
K:HP
M:4/4
L:1/8
R:March
U: R = ///
U: r = //
U: V = !accent!
V:M gstem=up stem=down name="Melody"
V:H gstem=up stem=down name="Harmony"
V:C gstem=up stem=down name="C-Harmony"
V:S gstem=up stem=down dyn=up stafflines=1 clef=perc middle=G name="Snare" sname="Snare"" sname=snare
V:B gstem=up stem=down clef=none dyn=up name="Bass"
V:T gstem=up stem=down clef=none dyn=up name="Tenor"V:BB gstem=up stem=down name="Brass Bass" sname="ABCD-C" transpose=-1  octave=-1 clef=bass
V:BC gstem=up stem=down name="Brass Chord" sname="ABCD-D" transpose=-1
V:BD gstem=up stem=down name="Brass Chord 2" sname="ABCD-B" transpose=-1
V:P gstem=up stem=down name="Piano" octave=-1
I:MIDI=program 110
%%score {M H}
T: Lord Lovat's Lament (Modified Scots Guards)
%%barsperscore 4
%%MIDI voice M instrument=110
%%MIDI voice H instrument=110
%%MIDI voice C instrument=110
%%MIDI voice BC instrument=62
%%MIDI voice BC instrument=62
%%MIDI voice BD instrument=62
%%landscape
V:M gstem=up stem=down name="Melody"
{g}A>B  	 | {GdG}c2                   {gcd}ce           {Gdc}dc               {gBd}B{G}A       | {g}c<e         {A}e>f        {gef}e2        {g}f>g      | {ag}a2        {ef}ea {fg}fe {gcd}c{e}A        | {g}c<{e}B {GdG}B>c {gBd}B2 {g}A>B | $
w: hen o | dro hoto e tra o hoto den | ho e ende ve hete che di | dili ete I vete e hoto un | ho uo dro o hoto hen o 
V:M
            {GdG}c2                   {gcd}ce           {Gdc}dc               {gBd}B{G}A       | {g}c<e         {A}e>f        {gef}e2        {gcd}c{e}A  | {Gdc}d>e      {gfg}f{g}e/<d/ {g}c<e {Gdc}d2   | {g}B<{e}A {GdGe}A>B {G}A2 {g}f>g    || $
w:  dro hoto e tra o hoto den | ho e ende ve hete hoto un| tra e chete he a ho e tra | ho un dariden o den che di
V:M
            {ag}a2                    {ef}ea            {fg}fe                {gcd}c{e}A       | {g}c<e         {A}e>f        {gef}e2        {g}f>g      | {ag}a2        {ef}ea {fg}fe {gcd}c{e}A        | {g}c<{e}B {GdG}Bc {gBd}B2 {g}A>B     | $
w: dili ete I vede e hoto un | ho e ende ve hete che di | dili ete I vete e hoto un | ho uo dro o hoto hen o 
V:M
            {GdG}c2                   {gcd}ce           {Gdc}dc               {gBd}B{G}A       | {g}c<e         {A}e>f        {gef}e2        {gcd}c{e}A  | {Gdc}d>e      {gfg}f{g}e/<d/ {g}c<e {Gdc}d2   | {g}B<{e}A {GdGe}A>B {G}A3            |] $
w:  dro hoto e tra o hoto den | ho e ende ve hete hoto un| tra e chete he a ho e tra | ho un dariden o den che di
V:H
%%MIDI program 109 #bagpipes
%%MIDI vol 60
% %MIDI droneon
{g}e>f	   | {g}A2                     {GdG}A{d}c        {gfg}fe               {gde}de          | {g}e<c         {g}c>d        {gcd}c2        {g}d>e      | {gfg}f2       {gcd}ce {gde}dc {gef}ec         | {g}e<d    {G}d>e {gfg}f2 {g}e>f      | $ 
V:H
            {g}A2                     {GdG}A{d}c        {gfg}fe               {gde}de          | {g}e<c         {g}c>d        {gcd}c2        {gef}ec     | {g}B>c        {gdc}d{g}c/<f/ {g}e<c {g}f>{e}f | {g}c2     {gef}e>d {gcd}c2 {g}d>e   || $
V:H
            {gfg}f2                   {g}cf             {gde}dc               {gef}ec          | {g}e<c         {g}c>d        {gcd}c2        {g}d>e      | {gfg}f2       {gcd}ce {gde}dc {gef}ec         | {g}e<d    {g}d>e {gfg}f2 {g}e>f      | $
V:H
            {g}A2                     {GdG}A{d}c        {gfg}fe               {gde}de          | {g}e<c         {g}c>d        {gcd}c2        {gef}ec     | {g}B>c        {gdc}d{g}c/<f/ {g}e<c {g}f>{e}f | {g}c2     {gef}e>d {gcd}c3           |] $
V:C
%%MIDI program 109 #bagpipes
%%MIDI vol 70
%%MIDI droneon
V:S gstem=up stem=down dyn=up stafflines=1 clef=perc middle=G name="Snare" sname="Snare"" sname=snare
L:1/16
%%MIDI gracedivider 4
%%MIDI channel 10
%%MIDI program 0 
%%MIDI drummap c 38
%%MIDI drummap A 38
%%MIDI vol 50
%%MIDI drumon
c2>A2   	 | "^9"(rc>!>!c)!>!A>"^5"(rc c)>A"^9"(rc>!>!c) !>!A>"^5"(rcc)>A      {A}c2"^13"r(c2   | (3:2A)cA{A}c>A (3:2AcA{A}c>A c>!>!Ac/A/c/A/ !>!c2c>A    |
V:S
            "^9"(rc>!>!c)!>!A>"^5"(rc c)>A"^9"(rc>!>!c) !>!A>"^5"(rcc)>A      {A}c2"^13"r(c2   | A4)            (rc4          c4)            z2c>A       |
V:S
            "^9"(rc>!>!c)!>!A>"^5"(rc c)>A"^9"(rc>!>!c) !>!A>"^5"(rcc)>A      {A}c2"^13"r(c2   | (3:2A)cA{A}c>A (3:2AcA{A}c>A c>!>!Ac/A/c/A/ !>!c2c>A    |
V:S
            "^9"(rc>!>!c)!>!A>"^5"(rc c)>A"^9"(rc>!>!c) !>!A>"^5"(rcc)>A      {A}c2"^13"r(c2   | A4)            (rc4          c4)            z2c>A      ||
V:S
            "^5"(!>!rc2!>!"^9"RA4     !>!A2)            "^5"(!>!rc2!>!"^9"RA4 !>!A2)           | (3:2AcA{A}c>A  (3:2AcA{A}c>A c>!>!Ac/A/c/A/ !>!c2c>A    |
V:S
            "^5"(!>!rc2!>!"^9"RA4     !>!A2)            "^5"(!>!rc2!>!"^9"RA4 !>!A2)           | (3:2AcA{A}c2   A{A}>cA>A     {A}c2(rc2      A2)c>A      |
V:S
            "^5"(!>!rc2!>!"^9"RA4     !>!A2)            "^5"(!>!rc2!>!"^9"RA4 !>!A2)           | (3:2AcA{A}c>A  (3:2AcA{A}c>A c>!>!Ac/A/c/A/ !>!c2c>A    |
V:S
            "^5"(!>!rc2!>!"^9"RA4     !>!A2)            "^5"(!>!rc2!>!"^9"RA4 !>!A2)           | {c}A4          (rc4          c4)            z4         ||
%%MIDI drumoff
V:B gstem=up stem=down dyn=up stafflines=5 clef=bass octave=-2 sname=bass name="Bass" 
% %MIDI program 116 #taiko drum
% %MIDI program 0 
%%MIDI channel 10
%%MIDI vol 80
%%MIDI drummap A 35
%%MIDI drumon
L:1/8
z2      	 | A2                        A2                A2                    A2               | A2             A2            A2             AA/A/       | A2            A2 A2 A2                        | A2        A2 A2 AA/A/                |
V:B
          | A2                        A2                A2                    A2               | A2             A2            A2             A2          | A2            A2 A2 A2                        | A2        A2 A2 z2                  ||
V:B
          | A(A                       A)A               A(A                   A)A              | A2             A2            A2             A2          | "^Alternative typeset of bar 1" A A2 AA A2 A  | A2        A2 A2 z2                   |
V:B
          | A                         A2                AA                    A2             A | A2             A2            A2             A2          | A             A2 AA A2 A                      | A2        A2 A2 z                    |]
%%MIDI drumoff
V:T gstem=up stem=down dyn=up stafflines=5 clef=bass octave=-2  sname=tenor name="Tenor"
%%MIDI drummap e 43
%%MIDI channel 10
%%MIDI program 117 #Melodic Tom
%%MIDI vol 70
%%MIDI drumon
z2	       | e                         e2                ee                    e2             e | e2             e2            e(3:2e/e/e/    e2          | e             e2 ee e2 e                      | e2        e2 e(3:2e/e/e/ e2          |

V:T
          | e                         e2                ee                    e2             e | e2             e2            e(3:2e/e/e/    e2          | e             e2 ee e2 e                      | e2        e2 e(3:2e/e/e/ e z        ||
V:T
          | e2                        e2                e2                    e2               | e2             e2            e2             e2          | e2            e2 e2 e2                        | e2        e2 e2 z2                   |  $
V:T
          | e2                        e2                e2                    e2               | e2             e2            e2             e2          | e2            e2 e2 e2                        | e2        e2 e2 z2                   |]
%%MIDI drumoff
W: The version presented here is somewhat different than printed in Scots Guards.  However, it is how the transcriber learned the tune (by ear) off of recordings
W: from the late 80's.

